src/icons/services/influencer.svg

<svg width="52" height="52" viewBox="0 0 52 52" fill="none" xmlns="http://www.w3.org/2000/svg">
<path d="M43.3335 4.3335V8.66683L8.66683 17.3335V13.0002H4.3335V39.0002H8.66683V34.6668L13.0002 35.7502V40.0835C13.0002 44.2002 16.4668 47.6668 20.5835 47.6668C24.7002 47.6668 28.1668 44.2002 28.1668 40.0835V39.6502L43.3335 43.3335V47.6668H47.6668V4.3335H43.3335ZM23.8335 40.0835C23.8335 41.8168 22.3168 43.3335 20.5835 43.3335C18.8502 43.3335 17.3335 41.8168 17.3335 40.0835V36.8335L23.8335 38.5668V40.0835ZM43.3335 39.0002L8.66683 30.3335V21.6668L43.3335 13.0002V39.0002Z" fill="#9D74D3"/>
</svg>

<svg xmlns="http://www.w3.org/2000/svg" width="52" height="52" fill="none"  ><path d="M43.334 4.334v4.333L8.667 17.334V13H4.334v26h4.333v-4.333L13 35.75v4.333c0 4.117 3.467 7.583 7.583 7.583s7.583-3.467 7.583-7.583v-.433l15.167 3.683v4.333h4.333V4.334h-4.333zm-19.5 35.75c0 1.733-1.517 3.25-3.25 3.25s-3.25-1.517-3.25-3.25v-3.25l6.5 1.733v1.517zM43.334 39L8.667 30.334v-8.667L43.334 13v26z" fill="#9d74d3"/></svg>
